dist/img/svg/vk.svg

<svg width="24" height="24" viewBox="0 0 24 24" fill="none" xmlns="http://www.w3.org/2000/svg">
<path d="M21.504 18.3809H19.222C18.359 18.3809 18.099 17.6819 16.552 16.1339C15.2 14.8309 14.629 14.6689 14.287 14.6689C13.814 14.6689 13.685 14.7989 13.685 15.4499V17.5019C13.685 18.0569 13.505 18.3819 12.055 18.3819C10.6483 18.2874 9.28416 17.8601 8.07497 17.1351C6.86578 16.4101 5.84612 15.4082 5.1 14.2119C3.32901 12.0066 2.09641 9.41879 1.5 6.65395C1.5 6.31195 1.63 6.00195 2.282 6.00195H4.562C5.148 6.00195 5.359 6.26295 5.589 6.86595C6.696 10.1239 8.585 12.9579 9.352 12.9579C9.646 12.9579 9.774 12.8279 9.774 12.0949V8.73895C9.677 7.20795 8.864 7.07895 8.864 6.52495C8.87428 6.37879 8.94114 6.2424 9.05037 6.14474C9.15961 6.04708 9.30261 5.99586 9.449 6.00195H13.033C13.523 6.00195 13.685 6.24595 13.685 6.83195V11.3619C13.685 11.8509 13.895 12.0129 14.043 12.0129C14.337 12.0129 14.563 11.8509 15.102 11.3129C16.2569 9.9036 17.2008 8.33386 17.904 6.65295C17.9756 6.45091 18.1116 6.27794 18.2909 6.16054C18.4703 6.04313 18.6832 5.98778 18.897 6.00295H21.178C21.862 6.00295 22.007 6.34495 21.862 6.83295C21.0321 8.69124 20.0056 10.4553 18.8 12.0949C18.554 12.4699 18.456 12.6649 18.8 13.1049C19.026 13.4469 19.826 14.1149 20.363 14.7499C21.145 15.5299 21.794 16.4319 22.285 17.4199C22.481 18.0559 22.155 18.3809 21.504 18.3809Z" fill="currentColor"/>
</svg>

<svg width="24" height="24" viewBox="0 0 24 24" fill="none" xmlns="http://www.w3.org/2000/svg"><path d="M21.504 18.38h-2.282c-.863 0-1.123-.698-2.67-2.246-1.352-1.303-1.923-1.465-2.265-1.465-.473 0-.602.13-.602.78v2.053c0 .555-.18.88-1.63.88a8.9 8.9 0 01-6.955-4.17 18.2 18.2 0 01-3.6-7.558c0-.342.13-.652.782-.652h2.28c.586 0 .797.261 1.027.864 1.107 3.258 2.996 6.092 3.763 6.092.294 0 .422-.13.422-.863V8.739c-.097-1.531-.91-1.66-.91-2.214a.563.563 0 01.585-.523h3.584c.49 0 .652.244.652.83v4.53c0 .489.21.65.358.65.294 0 .52-.161 1.059-.7a18.797 18.797 0 002.802-4.659.98.98 0 01.993-.65h2.281c.684 0 .829.342.684.83a28.502 28.502 0 01-3.062 5.262c-.246.375-.344.57 0 1.01.226.342 1.026 1.01 1.563 1.645.782.78 1.431 1.682 1.922 2.67.196.636-.13.96-.781.96z" fill="currentColor"/></svg>
